X:1
T: The Honourable Seymour Egerton
C:Alexander Walker
R:Reel
Q: 232
K:F
M:4/4
L:1/8
|:A|CF F2 AF cF|DG G2 BG dG|CF F2 AF cA|Bd ce fF FA|
CF F2 AF cF|DG G2 BG dG|CF F2 AF cA|Bd ce fF Ff|
af cf Af cf|bg dg Bg dg|af cf Af cf|Bd Gc AF Ff|
af cf Af cf|bg dg Bg dg|ba ge fe dc|df eg f2 f:|
